other/babyphone.svg

<?xml version="1.0" encoding="UTF-8" standalone="no"?>
<svg
   id="Layer_2"
   data-name="Layer 2"
   viewBox="0 0 48 48"
   version="1.1"
   xmlns="http://www.w3.org/2000/svg"
   xmlns:svg="http://www.w3.org/2000/svg">
  <defs
     id="defs4">
    <style
       id="style2">.cls-1{fill:none;stroke:#fff;stroke-linecap:round;stroke-linejoin:round;}</style>
  </defs>
  <path
     class="cls-1"
     d="M40.72,30.28a62,62,0,0,1-6.3-1.11,3.11,3.11,0,0,0-3,.58c-.53.54-2.06,2.05-3.65,3.61a28.69,28.69,0,0,1-13.1-13.11c1.55-1.59,3-3.11,3.59-3.64a3.11,3.11,0,0,0,.58-3,61.84,61.84,0,0,1-1.11-6.31,2,2,0,0,0-2.3-1.77H6.91A1.5,1.5,0,0,0,5.55,6.9C5,14.59,9.29,22.82,10.16,24.4h0l0,.06.12.23h0a35.44,35.44,0,0,0,13,13h0l.44.25h0C25.72,39,33.67,43,41.1,42.45a1.5,1.5,0,0,0,1.39-1.36V32.58A2,2,0,0,0,40.72,30.28Z" />
  <path
     class="cls-1"
     d="m 29.63385,11.441221 a 6.1999998,6.1999998 0 0 1 5.599297,5.313534" />
  <path
     class="cls-1"
     d="M 24.922173,22.204603 C 23.934597,21.306757 23.23363,20.089117 22.987677,18.694247 l 12.191896,0.106397 c -0.272309,1.400908 -1.003347,2.613853 -2.018332,3.496033 m -3.153112,1.453624 c -0.316579,0.04701 -0.640207,0.06996 -0.968749,0.06709 -0.386628,-0.0034 -0.765827,-0.04237 -1.134171,-0.114085" />
  <circle
     class="cls-1"
     cx="25.9"
     cy="24.1"
     r="2" />
  <circle
     class="cls-1"
     cx="32.1"
     cy="24.1"
     r="2" />
  <path
     class="cls-1"
     d="m 21.5,17 h 1 l 0.487677,1.694243" />
  <path
     class="cls-1"
     d="M 29.634,11.441221 V 16.755 h 5.599" />
</svg>

<svg xmlns="http://www.w3.org/2000/svg" viewBox="0 0 48 48"><defs><style>.a{fill:none;stroke:#fff;stroke-linecap:round;stroke-linejoin:round;}</style></defs><path class="a" d="M40.7172,30.2783a62.0166,62.0166,0,0,1-6.302-1.11,3.1108,3.1108,0,0,0-3.0009.58c-.53.54-2.0607,2.0506-3.6511,3.6111A28.6984,28.6984,0,0,1,14.6591,20.2452c1.55-1.5905,3.0009-3.1109,3.5911-3.6411a3.111,3.111,0,0,0,.58-3.0009,61.8391,61.8391,0,0,1-1.11-6.312A2,2,0,0,0,15.5242,5.507c-.0351.0036-.07.0082-.1049.0136H6.8967a1.5006,1.5006,0,0,0-1.36,1.37c-.55,7.6924,3.7412,15.9249,4.6115,17.5054h0v.06l.12.23h0a35.45,35.45,0,0,0,13.0041,13.004h0l.44.25h0c2.0006,1.06,9.9531,5.0616,17.3854,4.5114a1.437,1.437,0,0,0,1.39-1.36V32.5791a2.131,2.131,0,0,0-1.6656-2.2871C40.7872,30.2865,40.7523,30.282,40.7172,30.2783Z"/><path class="a" d="M24.9144,22.2a6.189,6.189,0,0,1-1.9351-3.5114H35.175a6.4743,6.4743,0,0,1-2.0189,3.6035M30.134,23.7a8.0391,8.0391,0,0,1-1.1011.1141A6.2234,6.2234,0,0,1,27.8984,23.7"/><circle class="a" cx="25.8926" cy="24.0964" r="2.0006"/><circle class="a" cx="32.0945" cy="24.0964" r="2.0006"/><path class="a" d="M21.4912,16.9942h1l.4878,1.6948"/><path class="a" d="M29.6277,11.4337v5.3154h5.6008l0,0a6.2019,6.2019,0,0,0-5.601-5.3152Z"/></svg>
